X:1
%
T:Cha'n ioghnadh na gillean
T:No wonder young men
M:6.8
L:1/8
R:Air
S:Morison - Highland Airs and Quicksteps, vol. 1
Z:AK/Fiddler's Companion
K:C
C | (c>BA) (AGF) | (G>EG) (CDE) | (c>BA) (AGE) | GEC D2C |
E>GE D>CC | c>Bc d>cd | e>dc A<cA | (GEC) D2C ||

